X:125
T:A Carol Tune - for Christmas Day. JWDM.45
M:2/2
L:1/4
Q:80
S:J.Winder MS,Wyresdale,Lancs.,1789
R:Air
O:England
A:Lancashire
Z:vmp.Taz Tarry
K:G
"*"A/|dcd>c|BBA>A|ffe>c|def3/2||e/|agf>e|dfA>G|FED>f|e>fd3/2||
%Try in key of D
